Projet Adobe/Door correction.cube
LUT_3D_SIZE 6
-0.026919 -0.027161 -0.027579
0.215646 -0.027164 -0.027583
0.419605 -0.027176 -0.027593
0.615925 -0.027198 -0.027614
0.804978 -0.027232 -0.027648
0.973099 -0.027272 -0.027687
-0.026930 0.217609 -0.027589
0.215645 0.217609 -0.027591
0.419605 0.211153 -0.027604
0.615925 0.206529 -0.027624
0.804978 0.202389 -0.027657
0.973099 0.195651 -0.027696
-0.026969 0.423343 -0.027630
0.209276 0.423343 -0.027631
0.419603 0.423343 -0.027644
0.615924 0.414109 -0.027662
0.804978 0.405879 -0.027693
0.973098 0.392497 -0.027728
-0.027046 0.621503 -0.027705
0.204692 0.621503 -0.027706
0.410441 0.621503 -0.027716
0.615923 0.621503 -0.027738
0.804977 0.609126 -0.027764
0.973098 0.589014 -0.027795
-0.027162 0.812245 -0.027814
0.200583 0.812245 -0.027817
0.402284 0.812245 -0.027827
0.603708 0.812245 -0.027847
0.804976 0.812244 -0.027884
0.973097 0.785407 -0.027904
-0.027302 0.981878 -0.027951
0.193888 0.981878 -0.027951
0.388984 0.981878 -0.027961
0.583751 0.981878 -0.027982
0.778393 0.981877 -0.028012
0.973095 0.981877 -0.028055
-0.026920 -0.027163 0.220940
0.215646 -0.027164 0.220940
0.419605 -0.027177 0.214403
0.615925 -0.027199 0.209707
0.804978 -0.027233 0.205513
0.973099 -0.027272 0.198680
-0.026930 0.217609 0.220939
0.215632 0.217597 0.221004
0.421394 0.216362 0.219786
0.629297 0.201016 0.205012
0.825638 0.176917 0.181732
0.989942 0.174094 0.178881
-0.026970 0.423343 0.214400
0.192863 0.426590 0.199512
0.420218 0.424277 0.191189
0.626445 0.413104 0.178446
0.820420 0.400811 0.164406
0.989475 0.385230 0.157612
-0.027048 0.621503 0.209700
0.153887 0.625964 0.162745
0.400260 0.624870 0.156705
0.616721 0.622546 0.150907
0.812278 0.609090 0.145198
0.983820 0.587759 0.140124
-0.027164 0.812245 0.205510
0.132503 0.816066 0.143013
0.385113 0.815633 0.136202
0.598775 0.814589 0.133904
0.805586 0.813103 0.130832
0.977856 0.786013 0.129130
-0.027303 0.981878 0.198669
0.121961 0.984991 0.133488
0.369067 0.984914 0.125605
0.575850 0.984402 0.124628
0.775941 0.983487 0.123261
0.973652 0.982571 0.121656
-0.026924 -0.027165 0.429869
0.209280 -0.027169 0.429869
0.419605 -0.027181 0.429869
0.615925 -0.027203 0.420525
0.804978 -0.027234 0.412193
0.973099 -0.027276 0.398522
-0.026933 0.211154 0.429869
0.215172 0.217154 0.432087
0.421534 0.215564 0.431995
0.629725 0.197500 0.427042
0.825106 0.174795 0.413664
0.989982 0.172062 0.397516
-0.026976 0.423343 0.429868
0.189489 0.425807 0.432816
0.419508 0.423349 0.429993
0.617935 0.422441 0.429073
0.808410 0.421060 0.427735
0.989327 0.408742 0.416022
-0.027051 0.621503 0.420523
0.152695 0.625508 0.412826
0.415524 0.622397 0.426156
0.616133 0.621855 0.422813
0.811782 0.613370 0.413525
0.987942 0.596311 0.402087
-0.027166 0.812245 0.412187
0.132068 0.815841 0.397668
0.377959 0.818331 0.390734
0.595995 0.816627 0.385418
0.806180 0.813966 0.375027
0.984323 0.788954 0.370292
-0.027303 0.981878 0.398513
0.121789 0.984944 0.381725
0.343076 0.989919 0.357622
0.563617 0.988925 0.349011
0.771764 0.986838 0.342425
0.974550 0.983985 0.333986
-0.026931 -0.027174 0.631079
0.204702 -0.027177 0.631078
0.410445 -0.027186 0.631078
0.615925 -0.027210 0.631078
0.804978 -0.027243 0.618537
0.973099 -0.027282 0.598090
-0.026941 0.206531 0.631078
0.214324 0.216303 0.634778
0.416822 0.210385 0.640879
0.629717 0.190884 0.645573
0.823885 0.170793 0.629998
0.989829 0.167730 0.604480
-0.026980 0.414109 0.631078
0.184831 0.417701 0.645281
0.419175 0.423019 0.633575
0.617730 0.422111 0.633026
0.808279 0.420742 0.625951
0.989157 0.407464 0.612535
-0.027060 0.621503 0.631077
0.150407 0.624627 0.634733
0.413864 0.622341 0.632159
0.615858 0.621511 0.631250
0.806965 0.620694 0.630452
0.987548 0.613976 0.624388
-0.027174 0.812245 0.618535
0.131222 0.815450 0.615583
0.375397 0.817744 0.614275
0.613043 0.812950 0.628508
0.805061 0.812418 0.627734
0.983744 0.795734 0.610179
-0.027311 0.981878 0.598086
0.121446 0.984747 0.592010
0.339648 0.989574 0.583196
0.582579 0.988420 0.600266
0.778957 0.986254 0.597486
0.973756 0.982925 0.606443
-0.026944 -0.027187 0.824753
0.200600 -0.027187 0.824753
0.402291 -0.027200 0.824752
0.603711 -0.027222 0.824752
0.804978 -0.027258 0.824752
0.973099 -0.027296 0.797473
-0.026954 0.202392 0.824753
0.207131 0.209290 0.840706
0.410253 0.200173 0.846344
0.617622 0.183410 0.847552
0.821963 0.165184 0.842655
0.989688 0.160246 0.809478
-0.026990 0.405881 0.824752
0.178036 0.408828 0.847033
0.418129 0.421998 0.831643
0.611773 0.421099 0.829844
0.808400 0.419877 0.828411
0.988967 0.405276 0.812219
-0.027066 0.609127 0.824751
0.148640 0.612732 0.836538
0.411496 0.615821 0.830828
0.615561 0.621208 0.827337
0.806829 0.620419 0.826810
0.987332 0.612655 0.816063
-0.027187 0.812245 0.824750
0.129955 0.814883 0.827772
0.371454 0.816863 0.830278
0.612737 0.812816 0.825498
0.804840 0.812202 0.824982
0.982472 0.808881 0.822492
-0.027325 0.981878 0.797470
0.120921 0.984397 0.796738
0.335753 0.988886 0.795714
0.580916 0.987686 0.801680
0.794229 0.984986 0.815691
0.973163 0.982059 0.822009
-0.026959 -0.027202 0.996954
0.193916 -0.027203 0.996954
0.388996 -0.027212 0.996954
0.583755 -0.027235 0.996954
0.778397 -0.027265 0.996954
0.973098 -0.027310 0.996953
-0.026967 0.195657 0.996954
0.214100 0.216066 0.999354
0.396860 0.215633 0.999359
0.588124 0.214681 0.999369
0.781206 0.212969 0.999382
0.975362 0.209959 0.999400
-0.027001 0.392499 0.996954
0.212492 0.400041 0.999370
0.418935 0.422754 0.999378
0.598478 0.422360 0.999386
0.785355 0.421652 0.999398
0.975341 0.420400 0.999415
-0.027069 0.589015 0.996953
0.208240 0.592671 0.999398
0.417401 0.603330 0.999404
0.615538 0.621143 0.999416
0.792260 0.620670 0.999422
0.975260 0.619806 0.999425
-0.027183 0.785407 0.996952
0.196560 0.787385 0.999425
0.413298 0.791598 0.999425
0.613366 0.798689 0.999421
0.804683 0.812003 0.999400
0.975019 0.811147 0.999360
-0.027340 0.981878 0.996951
0.131726 0.983841 0.999302
0.394605 0.983769 0.999269
0.602720 0.983613 0.999182
0.797728 0.983266 0.998982
0.972428 0.981863 0.998235
