Projet Adobe/Door correction.cube
LUT_3D_SIZE 16
-0.026919 -0.027161 -0.027579
0.072562 -0.027162 -0.027579
0.145692 -0.027163 -0.027580
0.215646 -0.027164 -0.027583
0.284490 -0.027166 -0.027585
0.352459 -0.027171 -0.027588
0.419605 -0.027176 -0.027593
0.485736 -0.027182 -0.027599
0.551031 -0.027188 -0.027607
0.615925 -0.027198 -0.027614
0.680099 -0.027209 -0.027625
0.743469 -0.027218 -0.027637
0.804978 -0.027232 -0.027648
0.864785 -0.027244 -0.027661
0.921277 -0.027258 -0.027675
0.973099 -0.027272 -0.027687
-0.026920 0.073211 -0.027580
0.072562 0.073211 -0.027580
0.145692 0.071179 -0.027581
0.215646 0.069811 -0.027584
0.284490 0.068880 -0.027586
0.352459 0.068165 -0.027589
0.419605 0.067535 -0.027594
0.485736 0.066941 -0.027600
0.551031 0.066377 -0.027607
0.615925 0.065891 -0.027615
0.680099 0.065428 -0.027626
0.743469 0.064955 -0.027637
0.804978 0.064419 -0.027649
0.864785 0.063791 -0.027661
0.921277 0.063024 -0.027674
0.973099 0.062001 -0.027688
-0.026922 0.147003 -0.027584
0.070539 0.147003 -0.027584
0.145692 0.147003 -0.027584
0.215645 0.144392 -0.027586
0.284489 0.142630 -0.027588
0.352459 0.141257 -0.027591
0.419605 0.140073 -0.027597
0.485736 0.138941 -0.027604
0.551031 0.137878 -0.027611
0.615925 0.136962 -0.027618
0.680099 0.136084 -0.027630
0.743468 0.135200 -0.027639
0.804978 0.134187 -0.027652
0.864785 0.133009 -0.027664
0.921277 0.131566 -0.027678
0.973099 0.129647 -0.027690
-0.026930 0.217609 -0.027589
0.069184 0.217609 -0.027589
0.143108 0.217609 -0.027591
0.215645 0.217609 -0.027591
0.284489 0.214965 -0.027594
0.352459 0.212928 -0.027599
0.419605 0.211153 -0.027604
0.485736 0.209477 -0.027609
0.551031 0.207883 -0.027615
0.615925 0.206529 -0.027624
0.680099 0.205225 -0.027635
0.743468 0.203896 -0.027644
0.804978 0.202389 -0.027657
0.864785 0.200659 -0.027668
0.921277 0.198521 -0.027682
0.973099 0.195651 -0.027696
-0.026937 0.287057 -0.027599
0.068267 0.287057 -0.027600
0.141355 0.287057 -0.027599
0.213064 0.287057 -0.027602
0.284489 0.287057 -0.027605
0.352459 0.284352 -0.027608
0.419604 0.281964 -0.027612
0.485735 0.279749 -0.027617
0.551030 0.277637 -0.027625
0.615925 0.275821 -0.027634
0.680099 0.274099 -0.027643
0.743468 0.272337 -0.027653
0.804978 0.270320 -0.027665
0.864785 0.268009 -0.027678
0.921277 0.265165 -0.027690
0.973099 0.261366 -0.027704
-0.026953 0.355627 -0.027613
0.067547 0.355627 -0.027613
0.139995 0.355627 -0.027613
0.211026 0.355627 -0.027613
0.281811 0.355627 -0.027617
0.352458 0.355627 -0.027622
0.419604 0.352698 -0.027626
0.485735 0.349910 -0.027631
0.551030 0.347275 -0.027637
0.615924 0.344995 -0.027645
0.680099 0.342858 -0.027655
0.743468 0.340644 -0.027666
0.804978 0.338132 -0.027677
0.864785 0.335241 -0.027690
0.921277 0.331670 -0.027702
0.973099 0.326958 -0.027714
-0.026969 0.423343 -0.027630
0.066922 0.423343 -0.027630
0.138816 0.423343 -0.027629
0.209276 0.423343 -0.027631
0.279468 0.423343 -0.027635
0.349555 0.423343 -0.027637
0.419603 0.423343 -0.027644
0.485735 0.420009 -0.027648
0.551030 0.416823 -0.027655
0.615924 0.414109 -0.027662
0.680099 0.411553 -0.027671
0.743468 0.408926 -0.027683
0.804978 0.405879 -0.027693
0.864785 0.402424 -0.027706
0.921276 0.398141 -0.027716
0.973098 0.392497 -0.027728
-0.026992 0.490101 -0.027650
0.066333 0.490101 -0.027650
0.137701 0.490101 -0.027651
0.207601 0.490101 -0.027651
0.277257 0.490101 -0.027655
0.346784 0.490101 -0.027660
0.416271 0.490101 -0.027663
0.485734 0.490101 -0.027670
0.551029 0.486425 -0.027676
0.615924 0.483241 -0.027683
0.680098 0.480228 -0.027692
0.743467 0.477140 -0.027703
0.804977 0.473656 -0.027712
0.864784 0.469576 -0.027723
0.921276 0.464608 -0.027733
0.973098 0.457980 -0.027747
-0.027016 0.555979 -0.027675
0.065767 0.555979 -0.027676
0.136644 0.555979 -0.027675
0.206042 0.555978 -0.027677
0.275164 0.555978 -0.027681
0.344178 0.555978 -0.027683
0.413140 0.555978 -0.027688
0.482082 0.555978 -0.027695
0.551029 0.555978 -0.027703
0.615924 0.552377 -0.027710
0.680098 0.548910 -0.027716
0.743467 0.545366 -0.027727
0.804977 0.541408 -0.027735
0.864784 0.536761 -0.027748
0.921276 0.531099 -0.027757
0.973098 0.523485 -0.027769
-0.027046 0.621503 -0.027705
0.065281 0.621503 -0.027705
0.135734 0.621503 -0.027706
0.204692 0.621503 -0.027706
0.273367 0.621503 -0.027709
0.341909 0.621503 -0.027713
0.410441 0.621503 -0.027716
0.478954 0.621503 -0.027722
0.547424 0.621503 -0.027730
0.615923 0.621503 -0.027738
0.680098 0.617607 -0.027747
0.743466 0.613661 -0.027757
0.804977 0.609126 -0.027764
0.864784 0.603909 -0.027776
0.921276 0.597514 -0.027786
0.973098 0.589014 -0.027795
-0.027081 0.686204 -0.027735
0.064811 0.686204 -0.027735
0.134863 0.686204 -0.027736
0.203388 0.686204 -0.027738
0.271641 0.686204 -0.027741
0.339791 0.686204 -0.027744
0.407840 0.686204 -0.027751
0.475943 0.686204 -0.027756
0.544026 0.686204 -0.027763
0.612095 0.686204 -0.027772
0.680097 0.686204 -0.027782
0.743466 0.681833 -0.027789
0.804977 0.676834 -0.027799
0.864783 0.670989 -0.027808
0.921275 0.663953 -0.027817
0.973097 0.654459 -0.027827
-0.027118 0.750040 -0.027772
0.064335 0.750040 -0.027773
0.133978 0.750040 -0.027774
0.202082 0.750040 -0.027776
0.269907 0.750039 -0.027779
0.337611 0.750039 -0.027782
0.405275 0.750039 -0.027786
0.472902 0.750039 -0.027792
0.540529 0.750039 -0.027800
0.608174 0.750039 -0.027807
0.675777 0.750039 -0.027817
0.743465 0.750039 -0.027829
0.804976 0.744613 -0.027838
0.864783 0.738173 -0.027848
0.921275 0.730404 -0.027857
0.973097 0.720050 -0.027864
-0.027162 0.812245 -0.027814
0.063790 0.812245 -0.027814
0.132970 0.812245 -0.027815
0.200583 0.812245 -0.027817
0.267918 0.812245 -0.027818
0.335121 0.812245 -0.027822
0.402284 0.812245 -0.027827
0.469432 0.812245 -0.027831
0.536577 0.812245 -0.027840
0.603708 0.812245 -0.027847
0.670809 0.812244 -0.027860
0.737937 0.812244 -0.027871
0.804976 0.812244 -0.027884
0.864783 0.805300 -0.027893
0.921275 0.796781 -0.027901
0.973097 0.785407 -0.027904
-0.027208 0.872505 -0.027860
0.063161 0.872505 -0.027860
0.131802 0.872505 -0.027861
0.198854 0.872505 -0.027863
0.265609 0.872505 -0.027864
0.332259 0.872505 -0.027868
0.398817 0.872505 -0.027873
0.465403 0.872505 -0.027878
0.531960 0.872505 -0.027885
0.598530 0.872505 -0.027892
0.665042 0.872505 -0.027903
0.731618 0.872505 -0.027914
0.798141 0.872504 -0.027927
0.864782 0.872504 -0.027940
0.921274 0.863267 -0.027946
0.973096 0.850964 -0.027951
-0.027255 0.929581 -0.027905
0.062387 0.929581 -0.027905
0.130368 0.929581 -0.027906
0.196733 0.929581 -0.027906
0.262789 0.929581 -0.027909
0.328729 0.929581 -0.027914
0.394623 0.929581 -0.027917
0.460469 0.929581 -0.027923
0.526351 0.929581 -0.027928
0.592195 0.929581 -0.027937
0.658010 0.929581 -0.027947
0.723857 0.929580 -0.027958
0.789601 0.929580 -0.027970
0.855585 0.929580 -0.027982
0.921274 0.929580 -0.027999
0.973096 0.916339 -0.028000
-0.027302 0.981878 -0.027951
0.061362 0.981878 -0.027951
0.128467 0.981878 -0.027951
0.193888 0.981878 -0.027951
0.259027 0.981878 -0.027954
0.324014 0.981878 -0.027958
0.388984 0.981878 -0.027961
0.453916 0.981878 -0.027966
0.518821 0.981878 -0.027975
0.583751 0.981878 -0.027982
0.648638 0.981878 -0.027989
0.713568 0.981877 -0.028000
0.778393 0.981877 -0.028012
0.843403 0.981877 -0.028026
0.908135 0.981877 -0.028042
0.973095 0.981877 -0.028055
-0.026919 -0.027161 0.074345
0.072562 -0.027162 0.074345
0.145692 -0.027163 0.072275
0.215646 -0.027164 0.070889
0.284490 -0.027166 0.069943
0.352459 -0.027171 0.069211
0.419605 -0.027176 0.068577
0.485736 -0.027182 0.067974
0.551031 -0.027188 0.067405
0.615925 -0.027198 0.066912
0.680099 -0.027209 0.066438
0.743469 -0.027219 0.065961
0.804978 -0.027232 0.065411
0.864785 -0.027244 0.064775
0.921277 -0.027258 0.063996
0.973099 -0.027273 0.062957
-0.026920 0.073211 0.074344
0.072553 0.073212 0.074365
0.146327 0.072759 0.073918
0.220670 0.066550 0.067935
0.291599 0.057949 0.059626
0.359540 0.051322 0.053268
0.425997 0.046671 0.048845
0.491384 0.043483 0.045846
0.555991 0.041328 0.043835
0.620282 0.039909 0.042513
0.683968 0.039026 0.041695
0.746908 0.038546 0.041253
0.808105 0.038372 0.041088
0.867526 0.038414 0.041125
0.923846 0.038623 0.041306
0.975421 0.038927 0.041581
-0.026922 0.147003 0.072274
0.063819 0.148177 0.066110
0.145907 0.147326 0.063146
0.219264 0.143877 0.058681
0.289672 0.140564 0.053759
0.358032 0.137686 0.049417
0.425035 0.135301 0.045982
0.490765 0.133327 0.043438
0.555611 0.131682 0.041621
0.620106 0.130379 0.040369
0.683797 0.129260 0.039572
0.746782 0.128245 0.039127
0.808103 0.127211 0.038960
0.867519 0.126103 0.039002
0.923862 0.124805 0.039200
0.975454 0.123129 0.039485
-0.026930 0.217609 0.070886
0.050563 0.219097 0.053622
0.139596 0.218712 0.051480
0.215919 0.217958 0.049596
0.286874 0.214851 0.047568
0.355853 0.212147 0.045433
0.423361 0.209698 0.043500
0.489572 0.207480 0.041916
0.554758 0.205454 0.040714
0.619466 0.203736 0.039852
0.683359 0.202202 0.039302
0.746477 0.200690 0.039022
0.807799 0.199094 0.038955
0.867287 0.197307 0.039065
0.923703 0.195191 0.039299
0.975360 0.192425 0.039612
-0.026938 0.287057 0.069944
0.043535 0.288292 0.047166
0.135500 0.288152 0.044739
0.211363 0.287795 0.044027
0.284704 0.287342 0.043085
0.353971 0.284402 0.042177
0.421815 0.281692 0.041263
0.488313 0.279128 0.040456
0.553721 0.276702 0.039805
0.618691 0.274620 0.039336
0.682743 0.272657 0.039057
0.745914 0.270722 0.038954
0.807433 0.268601 0.039012
0.866971 0.266202 0.039200
0.923448 0.263320 0.039480
0.975179 0.259549 0.039817
-0.026953 0.355627 0.069208
0.040022 0.356629 0.044012
0.132972 0.356576 0.041180
0.208238 0.356376 0.040912
0.280905 0.356138 0.040545
0.352648 0.355849 0.040119
0.420580 0.352790 0.039763
0.487255 0.349844 0.039433
0.552854 0.346996 0.039173
0.617942 0.344540 0.039007
0.682137 0.342215 0.038955
0.745489 0.339864 0.039017
0.806962 0.337242 0.039191
0.866709 0.334261 0.039451
0.923163 0.330641 0.039781
0.974936 0.325895 0.040143
-0.026969 0.423343 0.068570
0.038448 0.424146 0.042610
0.131255 0.424143 0.039502
0.205851 0.424039 0.039414
0.277890 0.423919 0.039295
0.349020 0.423725 0.039164
0.419677 0.423536 0.039048
0.486448 0.420131 0.038978
0.552097 0.416863 0.038955
0.617307 0.414006 0.038987
0.681570 0.411305 0.039094
0.745010 0.408545 0.039279
0.806592 0.405467 0.039539
0.866292 0.401930 0.039858
0.922861 0.397604 0.040227
0.974669 0.391867 0.040606
-0.026992 0.490101 0.067956
0.038020 0.490737 0.042221
0.129941 0.490751 0.038965
0.203883 0.490718 0.038955
0.275285 0.490614 0.038955
0.345833 0.490507 0.038962
0.415969 0.490382 0.038998
0.485842 0.490240 0.039074
0.551523 0.486539 0.039171
0.616734 0.483319 0.039319
0.681118 0.480220 0.039520
0.744615 0.477070 0.039782
0.806149 0.473511 0.040102
0.866033 0.469391 0.040456
0.922589 0.464372 0.040844
0.974392 0.457708 0.041225
-0.027016 0.555979 0.067383
0.038310 0.556512 0.042459
0.128918 0.556536 0.039161
0.202189 0.556545 0.039191
0.272999 0.556442 0.039237
0.342962 0.556402 0.039318
0.412540 0.556283 0.039429
0.481872 0.556205 0.039581
0.551095 0.556115 0.039781
0.616301 0.552478 0.039986
0.680713 0.548996 0.040234
0.744172 0.545440 0.040539
0.805859 0.541402 0.040877
0.865699 0.536744 0.041252
0.922344 0.530992 0.041635
0.974129 0.523392 0.041999
-0.027046 0.621503 0.066886
0.039091 0.621931 0.043130
0.128160 0.621978 0.039848
0.200822 0.621927 0.039899
0.271095 0.621892 0.039977
0.340557 0.621869 0.040084
0.409622 0.621810 0.040229
0.478546 0.621741 0.040420
0.547302 0.621690 0.040665
0.615998 0.621581 0.040954
0.680380 0.617711 0.041226
0.743880 0.613730 0.041535
0.805567 0.609193 0.041873
0.865454 0.603952 0.042246
0.922074 0.597536 0.042618
0.973909 0.589023 0.042955
-0.027081 0.686204 0.066406
0.040203 0.686589 0.044097
0.127534 0.686610 0.040895
0.199585 0.686594 0.040946
0.269350 0.686567 0.041029
0.338319 0.686531 0.041156
0.406983 0.686546 0.041319
0.475378 0.686493 0.041526
0.543725 0.686433 0.041779
0.611988 0.686367 0.042087
0.680129 0.686300 0.042452
0.743567 0.681900 0.042755
0.805371 0.676935 0.043076
0.865228 0.671155 0.043422
0.921852 0.663986 0.043768
0.973716 0.654492 0.044069
-0.027119 0.750040 0.065918
0.041557 0.750431 0.045294
0.126989 0.750452 0.042191
0.198412 0.750440 0.042244
0.267646 0.750421 0.042333
0.336140 0.750395 0.042460
0.404281 0.750363 0.042625
0.472272 0.750324 0.042835
0.540142 0.750279 0.043092
0.607976 0.750230 0.043395
0.675721 0.750177 0.043755
0.743439 0.750123 0.044167
0.805181 0.744642 0.044474
0.864993 0.738327 0.044785
0.921709 0.730478 0.045084
0.973565 0.720045 0.045330
-0.027163 0.812245 0.065361
0.043063 0.812520 0.046629
0.126396 0.812542 0.043642
0.197098 0.812532 0.043699
0.265748 0.812518 0.043784
0.333688 0.812498 0.043909
0.401292 0.812473 0.044072
0.468760 0.812442 0.044280
0.536110 0.812437 0.044530
0.603439 0.812398 0.044822
0.670629 0.812356 0.045169
0.737888 0.812312 0.045562
0.805031 0.812266 0.046016
0.864864 0.805360 0.046292
0.921510 0.796799 0.046554
0.973454 0.785504 0.046748
-0.027208 0.872505 0.064714
0.044658 0.872772 0.048061
0.125717 0.872793 0.045197
0.195619 0.872786 0.045253
0.263562 0.872775 0.045332
0.330880 0.872760 0.045448
0.397893 0.872740 0.045610
0.464723 0.872716 0.045805
0.531502 0.872688 0.046051
0.598241 0.872721 0.046339
0.664893 0.872687 0.046666
0.731595 0.872651 0.047048
0.798124 0.872613 0.047472
0.864772 0.872574 0.047943
0.921448 0.863302 0.048151
0.973279 0.851077 0.048289
-0.027255 0.929581 0.063925
0.046283 0.929790 0.049533
0.124862 0.929811 0.046788
0.193767 0.929806 0.046841
0.260910 0.929797 0.046914
0.327463 0.929784 0.047030
0.393704 0.929768 0.047180
0.459826 0.929749 0.047365
0.525875 0.929726 0.047590
0.591880 0.929701 0.047861
0.657825 0.929701 0.048168
0.723738 0.929671 0.048521
0.789630 0.929639 0.048919
0.855582 0.929606 0.049371
0.921320 0.929644 0.049872
0.973236 0.916433 0.049941
-0.027302 0.981878 0.062876
0.047837 0.982059 0.050944
0.123605 0.982080 0.048310
0.191277 0.982075 0.048357
0.257354 0.982068 0.048430
0.322868 0.982058 0.048533
0.388158 0.982045 0.048670
0.453315 0.982025 0.048844
0.518427 0.982016 0.049058
0.583448 0.981995 0.049309
0.648422 0.981972 0.049604
0.713425 0.981946 0.049941
0.778306 0.981919 0.050319
0.843368 0.981891 0.050742
0.908143 0.981863 0.051204
0.973137 0.981834 0.051708
-0.026919 -0.027162 0.149270
0.070540 -0.027162 0.149270
0.145692 -0.027163 0.149270
0.215646 -0.027163 0.146625
0.284490 -0.027166 0.144829
0.352459 -0.027171 0.143440
0.419605 -0.027176 0.142231
0.485736 -0.027182 0.141088
0.551031 -0.027188 0.140001
0.615925 -0.027198 0.139076
0.680099 -0.027209 0.138182
0.743469 -0.027219 0.137285
0.804978 -0.027232 0.136256
0.864785 -0.027244 0.135058
0.921277 -0.027258 0.133599
0.973099 -0.027271 0.131640
-0.026920 0.071179 0.149270
0.072383 0.073051 0.150055
0.146561 0.072263 0.150199
0.220744 0.065300 0.148810
0.291395 0.057231 0.144955
0.359349 0.050942 0.141361
0.425852 0.046461 0.138553
0.491274 0.043368 0.136359
0.555964 0.041267 0.134600
0.620264 0.039875 0.133236
0.683993 0.039009 0.132086
0.746872 0.038539 0.131056
0.808086 0.038370 0.130000
0.867511 0.038418 0.128891
0.923834 0.038629 0.127580
0.975410 0.038934 0.125897
-0.026923 0.147003 0.149270
0.062636 0.147884 0.150323
0.145666 0.147005 0.149304
0.216361 0.146673 0.148984
0.285718 0.146155 0.148476
0.356643 0.143033 0.145479
0.428810 0.135351 0.138076
0.498244 0.126752 0.129753
0.565083 0.118679 0.121957
0.630500 0.111521 0.115071
0.694513 0.105400 0.109203
0.757357 0.100245 0.104280
0.818308 0.095982 0.100223
0.877314 0.092467 0.096896
0.933214 0.089632 0.094225
0.984478 0.087397 0.092125
-0.026931 0.217609 0.146624
0.050173 0.218937 0.143924
0.144112 0.217949 0.147821
0.215739 0.217736 0.146509
0.287136 0.215729 0.142767
0.358557 0.212562 0.137040
0.428804 0.208451 0.130235
0.497183 0.203890 0.123248
0.563779 0.199373 0.116612
0.629266 0.195280 0.110555
0.693472 0.191582 0.105216
0.756539 0.188263 0.100600
0.817688 0.185221 0.096699
0.876888 0.182329 0.093449
0.932977 0.179432 0.090773
0.984302 0.176258 0.088649
-0.026938 0.287057 0.144823
0.043400 0.288228 0.139836
0.130041 0.289259 0.134547
0.209481 0.288674 0.132568
0.284916 0.287668 0.128894
0.356745 0.284532 0.124733
0.426721 0.281088 0.119986
0.494858 0.277421 0.115055
0.561474 0.273770 0.110214
0.627133 0.270393 0.105623
0.691594 0.267202 0.101432
0.754960 0.264161 0.097697
0.816326 0.261104 0.094475
0.875777 0.257946 0.091718
0.932000 0.254524 0.089419
0.983479 0.250416 0.087584
-0.026954 0.355627 0.143438
0.039975 0.356584 0.137348
0.115002 0.358630 0.120308
0.201083 0.358172 0.118115
0.278445 0.357430 0.115831
0.352983 0.356348 0.112922
0.423388 0.352961 0.110002
0.491847 0.349385 0.106815
0.558731 0.345838 0.103544
0.624643 0.342576 0.100286
0.689406 0.339440 0.097204
0.753046 0.336313 0.094361
0.814677 0.333023 0.091839
0.874410 0.329448 0.089642
0.930770 0.325403 0.087785
0.982505 0.320371 0.086276
-0.026970 0.423343 0.142227
0.038437 0.424128 0.135662
0.103443 0.426388 0.109461
0.194023 0.426132 0.106695
0.272458 0.425624 0.105331
0.347135 0.424930 0.103555
0.420095 0.424073 0.101437
0.488795 0.420382 0.099490
0.555955 0.416698 0.097384
0.622118 0.413348 0.095185
0.687144 0.410081 0.093029
0.751044 0.406803 0.090967
0.812919 0.403185 0.089092
0.872903 0.399169 0.087433
0.929461 0.394502 0.085995
0.981290 0.388502 0.084824
-0.026992 0.490101 0.141083
0.038020 0.490725 0.134373
0.095022 0.492927 0.101655
0.188580 0.492798 0.098175
0.267409 0.492460 0.097347
0.341911 0.491975 0.096268
0.414564 0.491425 0.094935
0.486192 0.490748 0.093433
0.553501 0.486833 0.092114
0.619859 0.483299 0.090694
0.685057 0.479820 0.089228
0.749169 0.476295 0.087813
0.811243 0.472344 0.086478
0.871375 0.467877 0.085272
0.928127 0.462565 0.084218
0.980107 0.455684 0.083356
-0.027017 0.555979 0.139994
0.038312 0.556504 0.133342
0.088934 0.558531 0.096080
0.184370 0.558491 0.091918
0.263273 0.558273 0.091410
0.337446 0.557935 0.090723
0.409716 0.557604 0.089890
0.480903 0.557124 0.088929
0.551455 0.556576 0.087861
0.617926 0.552831 0.086956
0.683261 0.549086 0.086008
0.747503 0.545238 0.085051
0.809674 0.540974 0.084152
0.869957 0.535987 0.083310
0.926839 0.530073 0.082572
0.978994 0.522290 0.081975
-0.027047 0.621503 0.139066
0.039097 0.621927 0.132583
0.084530 0.623769 0.092106
0.181236 0.623784 0.087317
0.260014 0.623638 0.087006
0.333867 0.623401 0.086585
0.405697 0.623106 0.086044
0.476467 0.622783 0.085421
0.546613 0.622417 0.084733
0.616294 0.622027 0.083993
0.681651 0.618015 0.083394
0.745926 0.613914 0.082779
0.808289 0.609166 0.082189
0.868619 0.603736 0.081639
0.925631 0.597162 0.081150
0.977821 0.588513 0.080761
-0.027081 0.686204 0.138173
0.040211 0.686586 0.131951
0.081407 0.688279 0.089302
0.178731 0.688322 0.083999
0.257278 0.688187 0.083805
0.330733 0.688064 0.083536
0.402095 0.687831 0.083201
0.472459 0.687594 0.082804
0.542156 0.687296 0.082357
0.611479 0.687007 0.081884
0.680425 0.686675 0.081382
0.744647 0.682190 0.081004
0.807095 0.677159 0.080638
0.867479 0.671204 0.080297
0.924582 0.663982 0.079997
0.976843 0.654377 0.079759
-0.027119 0.750040 0.137270
0.041568 0.750429 0.131393
0.079232 0.751913 0.087352
0.176700 0.751973 0.081652
0.254857 0.751873 0.081529
0.327851 0.751848 0.081367
0.398777 0.751672 0.081156
0.468653 0.751461 0.080910
0.537954 0.751218 0.080630
0.606792 0.751057 0.080334
0.675348 0.750764 0.080017
0.743685 0.750528 0.079705
0.806144 0.745017 0.079495
0.866486 0.738533 0.079300
0.923615 0.730647 0.079128
0.975919 0.720111 0.079005
-0.027163 0.812245 0.136238
0.043073 0.812519 0.130777
0.077802 0.813917 0.086091
0.174825 0.813988 0.080060
0.252457 0.813909 0.079990
0.324893 0.813800 0.079892
0.395269 0.813701 0.079766
0.464614 0.813612 0.079618
0.533376 0.813444 0.079457
0.601709 0.813252 0.079278
0.669754 0.813009 0.079088
0.737594 0.812859 0.078906
0.805287 0.812627 0.078730
0.865685 0.805603 0.078636
0.922835 0.797080 0.078558
0.975114 0.785745 0.078503
-0.027208 0.872505 0.135037
0.044671 0.872771 0.130088
0.076929 0.874031 0.085314
0.172994 0.874110 0.079047
0.249967 0.874047 0.079009
0.321753 0.873959 0.078956
0.391516 0.873912 0.078883
0.460213 0.873773 0.078808
0.528357 0.873680 0.078715
0.596094 0.873562 0.078625
0.663540 0.873423 0.078526
0.730883 0.873203 0.078438
0.797876 0.873014 0.078354
0.864990 0.872889 0.078285
0.922140 0.863628 0.078260
0.974407 0.851372 0.078248
-0.027255 0.929581 0.133574
0.046294 0.929789 0.129190
0.076477 0.930960 0.084906
0.171073 0.931045 0.078483
0.247145 0.930993 0.078466
0.318120 0.930992 0.078440
0.387088 0.930899 0.078409
0.455029 0.930782 0.078371
0.522390 0.930718 0.078331
0.589417 0.930563 0.078297
0.656111 0.930524 0.078260
0.722710 0.930336 0.078234
0.788997 0.930207 0.078210
0.855452 0.930064 0.078215
0.921523 0.929846 0.078227
0.973845 0.916652 0.078233
-0.027302 0.981878 0.131625
0.047843 0.982058 0.127907
0.076339 0.983130 0.084771
0.168710 0.983219 0.078243
0.243595 0.983176 0.078239
0.313482 0.983116 0.078234
0.381419 0.983139 0.078227
0.448333 0.983043 0.078214
0.514740 0.982926 0.078211
0.580744 0.982903 0.078214
0.646468 0.982756 0.078222
0.712165 0.982696 0.078232
0.777443 0.982518 0.078262
0.842864 0.982435 0.078300
0.908103 0.982341 0.078361
0.973294 0.982143 0.078440
-0.026920 -0.027163 0.220940
0.069187 -0.027163 0.220940
0.143109 -0.027164 0.220940
0.215646 -0.027164 0.220940
0.284490 -0.027167 0.218281
0.352459 -0.027170 0.216205
0.419605 -0.027177 0.214403
0.485736 -0.027183 0.212704
0.551031 -0.027189 0.211093
0.615925 -0.027199 0.209707
0.680099 -0.027210 0.208407
0.743469 -0.027220 0.207044
0.804978 -0.027233 0.205513
0.864785 -0.027245 0.203740
0.921277 -0.027257 0.201560
0.973099 -0.027272 0.198680
-0.026921 0.069812 0.220940
0.072059 0.072727 0.222262
0.145424 0.070039 0.224996
0.220572 0.062972 0.226155
0.290919 0.055891 0.222058
0.358953 0.050214 0.218049
0.425600 0.046062 0.214699
0.491131 0.043145 0.211880
0.555831 0.041138 0.209501
0.620181 0.039801 0.207599
0.683929 0.038974 0.205919
0.746796 0.038523 0.204338
0.808085 0.038365 0.202672
0.867480 0.038423 0.200847
0.923809 0.038635 0.198676
0.975389 0.038948 0.195857
-0.026923 0.144392 0.220940
0.060913 0.145484 0.225970
0.145552 0.146887 0.221847
0.216295 0.146554 0.221655
0.285662 0.146042 0.220246
0.357146 0.142124 0.218816
0.428961 0.134412 0.215332
0.498150 0.125997 0.210577
0.564941 0.118107 0.205662
0.630332 0.111107 0.201212
0.694346 0.105091 0.197251
0.757210 0.100022 0.193794
0.818180 0.095809 0.190638
0.877270 0.092326 0.187684
0.933189 0.089525 0.184785
0.984393 0.087319 0.181627
-0.026930 0.217609 0.220939
0.049430 0.218624 0.222149
0.143463 0.217920 0.221381
0.215632 0.217597 0.221004
0.285234 0.217309 0.220717
0.353794 0.216907 0.220314
0.421394 0.216362 0.219786
0.489355 0.214541 0.218058
0.559572 0.208767 0.212512
0.629297 0.201016 0.205012
0.697043 0.192674 0.196960
0.762708 0.184509 0.189051
0.825638 0.176917 0.181732
0.886077 0.170083 0.175141
0.942821 0.164101 0.169403
0.989942 0.174094 0.178881
-0.026939 0.287057 0.218280
0.043138 0.288076 0.217232
0.129138 0.289062 0.215966
0.214593 0.287332 0.220011
0.284530 0.287140 0.219731
0.353316 0.285970 0.219194
0.422483 0.284130 0.216562
0.492071 0.281007 0.211670
0.561220 0.276708 0.205300
0.629618 0.271718 0.198118
0.696505 0.266371 0.190726
0.761765 0.260958 0.183481
0.824583 0.255617 0.176719
0.885103 0.250411 0.170499
0.941925 0.245327 0.165048
0.989889 0.247715 0.174477
-0.026953 0.355627 0.216203
0.039881 0.356518 0.213959
0.114459 0.358419 0.207940
0.208174 0.357055 0.213984
0.280724 0.356652 0.212827
0.352768 0.356111 0.209408
0.423239 0.353492 0.205286
0.492724 0.350199 0.200316
0.561126 0.346399 0.194705
0.628766 0.342401 0.188693
0.695093 0.338206 0.182559
0.760084 0.333870 0.176545
0.822788 0.329332 0.170887
0.883282 0.324621 0.165642
0.940248 0.319603 0.160984
0.989758 0.317284 0.167684
-0.026970 0.423343 0.214400
0.038410 0.424091 0.211531
0.103134 0.426253 0.201258
0.192863 0.426590 0.199512
0.271657 0.426047 0.198045
0.346556 0.425324 0.194992
0.420218 0.424277 0.191189
0.490337 0.420694 0.187374
0.558877 0.416843 0.183105
0.626445 0.413104 0.178446
